packages/ui-icons/svg/Solid/heart.svg

<svg viewBox="0 0 1920 1920" version="1.1" xmlns="http://www.w3.org/2000/svg">
    <path d="M1771.73096,291.036727 C1675.70911,193.659271 1547.94356,140 1411.81846,140 L1411.70549,140 C1275.5804,140 1147.92781,193.659271 1052.1319,290.92376 C1014.51392,328.993601 983.560995,371.921018 959.837949,418.350408 C936.22787,371.921018 905.274943,328.993601 867.769937,291.036727 C771.86105,193.659271 644.208468,140 507.970403,140 L507.857437,140 C371.845305,140 244.079757,193.659271 148.057903,291.036727 C-49.6341478,491.665917 -49.6341478,818.140219 149.752407,1020.12501 L959.837949,1780.27919 L1771.73096,1018.54348 C1969.42301,818.140219 1969.42301,491.665917 1771.73096,291.036727" stroke="none" stroke-width="1" fill-rule="evenodd"/>
</svg>

<svg viewBox="0 0 1920 1920" xmlns="http://www.w3.org/2000/svg">
    <path d="M1771.731 291.037C1675.709 193.659 1547.944 140 1411.818 140h-.113c-136.125 0-263.777 53.66-359.573 150.924-37.618 38.07-68.571 80.997-92.294 127.426-23.61-46.429-54.563-89.356-92.068-127.313C771.86 193.659 644.208 140 507.97 140h-.113c-136.012 0-263.777 53.66-359.8 151.037-197.691 200.629-197.691 527.103 1.695 729.088l810.086 760.154 811.893-761.736c197.692-200.403 197.692-526.877 0-727.506" fill-rule="evenodd"/>
</svg>
